X:158
T:King of Denmark's Favourite, The
M:6/8
L:1/8
B:Thompson's Compleat Collection of 200 Favourite Country Dances, vol. 3 (London, 1773)
Z:Transcribed and edited by Flynn Titford-Mock, 2007
Z:abc's:AK/Fiddler's Companion
K:G
G2d B2G | B2c B2A | G2d B2G | A2D G3::A2B A2G | A2B A2G | G2A B2A | B2c d3 |
G2d B2A | B2c B2A | G2d B2G | A2D G3::GAG G2A | BcB B2A | GAG GcB | AGF G3 :|
|: ded d3 | DED D3 | cdc c3 | DED D3 | G2D G2A | BcB B2A | G2D GcB | AGF G3 :|

